X:36
T: DU WIRST MIRS JA NIT UEBEL NEHMA
N: F0104
O: Europa, Mitteleuropa, Deutschland
R: Liebes - Lied, Trennung; Jodler
M: 3/4
L: 1/16
K: F
F2A2B2 | c6f2e2d2 | c2F2A2F2
d3c | c2E2G2E2d3c | c2F2A2F2
A3B | c4a4g3f | f2F2A2F2
d3c | c2E2G2E2d3c | F4z2
F2d3c | c2E2G2E2d3c | c2F2A2
F2d3c | c2E2G2E2d3c | c2f2c4
A3B | c4a4g3f | f2F2A2F2
d3c | c2E2G2E2d3c | F4z2

